SVG/anchor.svg

<?xml version="1.0" encoding="utf-8"?>
<!-- Generated by IcoMoon.io -->
<!DOCTYPE svg PUBLIC "-//W3C//DTD SVG 1.1//EN" "http://www.w3.org/Graphics/SVG/1.1/DTD/svg11.dtd">
<svg version="1.1" xmlns="http://www.w3.org/2000/svg" xmlns:xlink="http://www.w3.org/1999/xlink" width="14" height="14" viewBox="0 0 14 14">
<path fill="#444444" d="M7.5 2q0-0.203-0.148-0.352t-0.352-0.148-0.352 0.148-0.148 0.352 0.148 0.352 0.352 0.148 0.352-0.148 0.148-0.352zM14 9.25v2.75q0 0.172-0.156 0.234-0.062 0.016-0.094 0.016-0.102 0-0.18-0.070l-0.727-0.727q-0.93 1.117-2.488 1.77t-3.355 0.652-3.355-0.652-2.488-1.77l-0.727 0.727q-0.070 0.070-0.18 0.070-0.031 0-0.094-0.016-0.156-0.062-0.156-0.234v-2.75q0-0.109 0.070-0.18t0.18-0.070h2.75q0.172 0 0.234 0.156 0.062 0.148-0.055 0.273l-0.781 0.781q0.523 0.711 1.48 1.199t2.121 0.645v-5.055h-1.5q-0.203 0-0.352-0.148t-0.148-0.352v-1q0-0.203 0.148-0.352t0.352-0.148h1.5v-1.273q-0.453-0.266-0.727-0.723t-0.273-1.004q0-0.828 0.586-1.414t1.414-0.586 1.414 0.586 0.586 1.414q0 0.547-0.273 1.004t-0.727 0.723v1.273h1.5q0.203 0 0.352 0.148t0.148 0.352v1q0 0.203-0.148 0.352t-0.352 0.148h-1.5v5.055q1.164-0.156 2.121-0.645t1.48-1.199l-0.781-0.781q-0.117-0.125-0.055-0.273 0.062-0.156 0.234-0.156h2.75q0.109 0 0.18 0.070t0.070 0.18z"></path>
</svg>

<svg xmlns="http://www.w3.org/2000/svg" viewBox="0 0 14 14"><path d="M7.5 2q0-.203-.148-.352T7 1.5t-.352.148T6.5 2t.148.352T7 2.5t.352-.148T7.5 2zM14 9.25V12q0 .172-.156.234-.062.016-.094.016-.102 0-.18-.07l-.727-.727q-.93 1.117-2.488 1.77T7 13.875t-3.355-.652-2.488-1.77l-.727.727q-.07.07-.18.07-.03 0-.094-.016Q0 12.172 0 12V9.25q0-.11.07-.18T.25 9H3q.172 0 .234.156.062.148-.055.273l-.784.78q.523.71 1.48 1.2t2.12.642V7H4.5q-.202 0-.35-.15T4 6.5v-1q0-.204.15-.353T4.497 5H6V3.725q-.452-.266-.726-.723T5 2q0-.83.585-1.415T7 0t1.413.585T9 2q0 .546-.274 1.003T8 3.726V5h1.5q.202 0 .35.147T10 5.5v1q0 .202-.15.35T9.5 7H8v5.054q1.163-.156 2.12-.645t1.48-1.2l-.78-.78q-.118-.128-.056-.276.062-.156.234-.156h2.75q.11 0 .18.07t.07.18z" /></svg>
